src/extras-openmoji/food-drink/E0C6.svg

<?xml version="1.0" encoding="UTF-8"?>
<svg id="emoji" xmlns="http://www.w3.org/2000/svg" viewBox="0 0 72 72">
  <g id="grid">
    <path d="m68,4v64H4V4h64Zm4-4H0v72h72V0Z" fill="#b3b3b3"/>
    <path d="m12.923,10.9583h46.1539c.51,0,.9992.2026,1.3598.5633.3607.3606.5633.8498.5633,1.3598v46.1538c0,.51-.2026.9992-.5633,1.3599-.3606.3606-.8498.5632-1.3598.5632H12.9231c-.51,0-.9992-.2026-1.3598-.5632-.3607-.3607-.5633-.8499-.5633-1.3599V12.8813c0-.51.2026-.9991.5632-1.3598.3607-.3606.8498-.5632,1.3598-.5632h0Z" fill="none" stroke="#00a5ff" stroke-miterlimit="10" stroke-width=".1"/>
    <path d="m53.7463,4H18.2537c-1.2447,0-2.2537,1.009-2.2537,2.2537v59.4926c0,1.2447,1.009,2.2537,2.2537,2.2537h35.4926c1.2447,0,2.2537-1.009,2.2537-2.2537V6.2537c0-1.2447-1.009-2.2537-2.2537-2.2537Z" fill="none" stroke="#00a5ff" stroke-miterlimit="10" stroke-width=".1"/>
    <path d="m68,53.7463V18.2537c0-1.2447-1.009-2.2537-2.2537-2.2537H6.2537c-1.2447,0-2.2537,1.009-2.2537,2.2537v35.4926c0,1.2447,1.009,2.2537,2.2537,2.2537h59.4926c1.2447,0,2.2537-1.009,2.2537-2.2537Z" fill="none" stroke="#00a5ff" stroke-miterlimit="10" stroke-width=".1"/>
    <path d="m36,65c16.0163,0,29-12.9837,29-29S52.0163,7,36,7,7,19.9837,7,36s12.9837,29,29,29Z" fill="none" stroke="#00a5ff" stroke-miterlimit="10" stroke-width=".1"/>
  </g>
  <g id="color">
    <ellipse cx="36" cy="36" rx="19" ry="28" fill="#a57939"/>
    <path d="m36.3126,64c-.0151,0-.0187-.0215-.0043-.0264,8.3256-2.8339,14.553-14.2593,14.553-27.9228,0-13.6712-6.2343-25.1017-14.567-27.9276-.0669-.0227-.0522-.1232.0183-.1232,10.3208,0,18.6874,12.536,18.6874,28s-8.3667,28-18.6874,28Z" fill="#6a462f" fill-rule="evenodd"/>
    <g>
      <path d="m36,60.9996s-6-11.1929-6-25c0-13.7599,5.9591-24.9235,5.9998-24.9996-.0287.0538-2.9998,5.6294-2.9998,12.4996,0,6.9036,3,12.5,3,12.5,0,0,3,5.5964,3,12.5s-3,12.5-3,12.5Z" fill="#6a462f" fill-rule="evenodd"/>
      <path d="m36,60.9996l-.8814.4725c.1742.3248.5128.5275.8814.5275s.7072-.2027.8814-.5275l-.8814-.4725Zm-.0002-49.9996l.8819.4713c.2603-.487.0766-1.0928-.4104-1.3532-.487-.2603-1.0928-.0767-1.3533.4102l.8818.4717Zm.0002,24.9996l.8814-.4725-.8814.4725Zm-7,0c0,7.0426,1.529,13.4025,3.0508,17.9924.7618,2.2976,1.5242,4.1589,2.098,5.4493.2869.6453.5269,1.1484.6963,1.4923.0848.172.1519.3043.1984.3947.0233.0452.0415.08.0541.104.0063.012.0113.0214.0148.028.0018.0033.0032.006.0042.0079.0005.001.001.0018.0013.0025.0002.0003.0004.0006.0004.0008t.8817-.4719q.8814-.4725.8815-.4721h0s-.0002-.0002-.0004-.0006c-.0004-.0008-.0012-.0022-.0023-.0043-.0022-.0043-.0059-.0112-.0109-.0208-.0101-.0191-.0256-.0489-.0463-.089-.0413-.0803-.1031-.202-.1825-.363-.1586-.3221-.3874-.8014-.663-1.4211-.5512-1.2398-1.2888-3.0397-2.027-5.2661-1.4782-4.4584-2.9492-10.5985-2.9492-17.363h-2Zm6.118-25.4713c-.0635.1188-6.118,11.4604-6.118,25.4713h2c0-13.509,5.8636-24.4944,5.8816-24.5279l-1.7636-.9434Zm-1.118,12.9713c0-3.2967.714-6.2986,1.4387-8.4923.7236-2.1906,1.4474-3.5442,1.443-3.536l-1.7639-.9427c-.0515.0965-3.1178,5.8501-3.1178,12.971h2Zm2,12.5q.8814-.4725.8816-.4721s0,.0002,0,.0003h.0001s-.0003-.0004-.0007-.0012c-.0008-.0015-.0023-.0043-.0045-.0085-.0044-.0084-.0115-.022-.0212-.0408-.0194-.0376-.0489-.0958-.0873-.1736-.0766-.1556-.1882-.3892-.3231-.6927-.27-.6073-.6326-1.4918-.9958-2.5873-.7282-2.1963-1.4492-5.2113-1.4492-8.5241h-2c0,3.5908.779,6.8257,1.5508,9.1535.3868,1.1667.7742,2.1127,1.0667,2.7705.1463.3291.2691.5865.3565.764.0438.0887.0787.1575.1032.2052.0123.0239.0221.0425.029.0558.0035.0066.0063.0119.0084.0158.001.002.0019.0036.0026.0049.0003.0006.0006.0011.0008.0016.0002.0002.0003.0005.0004.0007t.8816-.472Zm0,0q-.8814.4725-.8816.4721s0-.0002,0-.0003h-.0001s.0003.0004.0007.0012c.0008.0015.0023.0043.0045.0085.0044.0084.0115.022.0212.0408.0194.0376.0489.0958.0873.1736.0766.1556.1882.3892.3231.6927.27.6073.6326,1.4918.9958,2.5873.7282,2.1963,1.4492,5.2113,1.4492,8.5241h2c0-3.5908-.779-6.8257-1.5508-9.1535-.3868-1.1666-.7742-2.1127-1.0667-2.7705-.1463-.3291-.2691-.5865-.3565-.764-.0438-.0887-.0786-.1575-.1032-.2052-.0123-.0239-.022-.0425-.029-.0558-.0035-.0066-.0063-.0119-.0084-.0158-.001-.002-.0019-.0036-.0025-.0049-.0004-.0006-.0007-.0011-.0009-.0016-.0002-.0002-.0003-.0005-.0004-.0006t-.8816.4719Zm2,12.5c0,3.3128-.721,6.3278-1.4492,8.5241-.3632,1.0955-.7258,1.98-.9958,2.5873-.1349.3035-.2465.5371-.3231.6927-.0384.0778-.0679.136-.0873.1736-.0097.0188-.0168.0324-.0212.0408-.0022.0042-.0037.007-.0045.0085-.0004.0008-.0006.0012-.0007.0013h.0001s0-.0003,0-.0004t.8816.4721q.8814.4725.8816.472s.0002-.0005.0004-.0007c.0002-.0005.0005-.001.0009-.0016.0006-.0013.0015-.0029.0025-.0049.0021-.0039.0049-.0092.0084-.0158.0069-.0133.0167-.0319.029-.0558.0245-.0477.0594-.1165.1032-.2052.0874-.1775.2102-.4349.3565-.764.2925-.6578.6799-1.6038,1.0667-2.7705.7718-2.3278,1.5508-5.5627,1.5508-9.1535h-2Z" fill="#6a462f"/>
    </g>
  </g>
  <g id="line">
    <ellipse cx="36" cy="36" rx="19" ry="28" fill="none" stroke="#000" stroke-width="2"/>
    <path d="m36,36s-3-5.5964-3-12.5,3-12.5,3-12.5" fill="none" stroke="#000" stroke-linecap="round" stroke-linejoin="round" stroke-width="2"/>
    <path d="m36,36s3,5.5964,3,12.5-3,12.5-3,12.5" fill="none" stroke="#000" stroke-linecap="round" stroke-linejoin="round" stroke-width="2"/>
  </g>
</svg>

<svg id="emoji" viewBox="0 0 72 72" xmlns="http://www.w3.org/2000/svg">
  <g id="grid">
    <path fill="#B3B3B3" d="M68 4V68H4V4H68ZM72 0H0V72H72V0Z"/>
    <path fill="none" stroke="#00A5FF" stroke-miterlimit="10" stroke-width="0.1" d="M12.923 10.9583H59.0769C59.5869 10.9583 60.0761 11.1609 60.4367 11.5216C60.7974 11.8822 61 12.3714 61 12.8814V59.0352C61 59.5452 60.7974 60.0344 60.4367 60.3951C60.0761 60.7557 59.5869 60.9583 59.0769 60.9583H12.9231C12.4131 60.9583 11.9239 60.7557 11.5633 60.3951C11.2026 60.0344 11 59.5452 11 59.0352V12.8813C11 12.3713 11.2026 11.8822 11.5632 11.5215C11.9239 11.1609 12.413 10.9583 12.923 10.9583V10.9583Z"/>
    <path fill="none" stroke="#00A5FF" stroke-miterlimit="10" stroke-width="0.1" d="M53.7463 4H18.2537C17.009 4 16 5.00902 16 6.2537V65.7463C16 66.991 17.009 68 18.2537 68H53.7463C54.991 68 56 66.991 56 65.7463V6.2537C56 5.00902 54.991 4 53.7463 4Z"/>
    <path fill="none" stroke="#00A5FF" stroke-miterlimit="10" stroke-width="0.1" d="M68 53.7463V18.2537C68 17.009 66.991 16 65.7463 16L6.2537 16C5.00902 16 4 17.009 4 18.2537V53.7463C4 54.991 5.00902 56 6.2537 56L65.7463 56C66.991 56 68 54.991 68 53.7463Z"/>
    <path fill="none" stroke="#00A5FF" stroke-miterlimit="10" stroke-width="0.1" d="M36 65C52.0163 65 65 52.0163 65 36C65 19.9837 52.0163 7 36 7C19.9837 7 7 19.9837 7 36C7 52.0163 19.9837 65 36 65Z"/>
  </g>
  <g id="color">
    <ellipse cx="36" cy="36" rx="19" ry="28" fill="#A57939"/>
    <g>
      <path fill="#6A462F" fill-rule="evenodd" d="M36 64C35.9846 64 35.981 63.9785 35.9956 63.9736C44.4605 61.1397 50.792 49.7143 50.792 36.0508C50.792 22.3796 44.4534 10.9491 35.9814 8.1232C35.9134 8.10052 35.9283 8 36 8C46.4934 8 55 20.536 55 36C55 51.464 46.4934 64 36 64Z" clip-rule="evenodd"/>
      <path fill="#6A462F" d="M35.9956 63.9736L36.3131 64.9218L35.9956 63.9736ZM49.792 36.0508C49.792 42.734 48.2426 48.841 45.6871 53.6002C43.1261 58.3698 39.5986 61.7128 35.6781 63.0253L36.3131 64.9218C40.8575 63.4004 44.7282 59.6138 47.4492 54.5463C50.1758 49.4684 51.792 43.031 51.792 36.0508H49.792ZM35.665 9.07182C39.5885 10.3805 43.1193 13.7226 45.6829 18.4933C48.2408 23.2536 49.792 29.3638 49.792 36.0508H51.792C51.792 29.0666 50.174 22.6259 47.4446 17.5467C44.7209 12.4778 40.8463 8.69175 36.2978 7.17458L35.665 9.07182ZM36 9C40.8166 9 45.2921 11.8765 48.6076 16.7625C51.9193 21.643 54 28.4415 54 36H56C56 28.0945 53.8274 20.893 50.2625 15.6395C46.7013 10.3915 41.6769 7 36 7V9ZM54 36C54 43.5585 51.9193 50.357 48.6076 55.2375C45.2921 60.1235 40.8166 63 36 63V65C41.6769 65 46.7013 61.6085 50.2625 56.3605C53.8274 51.107 56 43.9055 56 36H54ZM36.2978 7.17458C36.7904 7.3389 36.9844 7.82089 36.9272 8.20152C36.8694 8.58686 36.5324 9 36 9V7C35.3959 7 35.0156 7.4634 34.9494 7.90467C34.8839 8.34123 35.1043 8.88483 35.665 9.07182L36.2978 7.17458ZM35.6781 63.0253C34.553 63.402 34.8885 65 36 65V63C37.0808 63 37.409 64.5549 36.3131 64.9218L35.6781 63.0253Z"/>
    </g>
    <g>
      <path fill="#6A462F" fill-rule="evenodd" d="M36 60.9996C36 60.9996 30 49.8067 30 35.9996C30 22.2397 35.9591 11.0761 35.9998 11C35.9711 11.0538 33 16.6294 33 23.4996C33 30.4032 36 35.9996 36 35.9996C36 35.9996 39 41.596 39 48.4996C39 55.4032 36 60.9996 36 60.9996Z" clip-rule="evenodd"/>
      <path fill="#6A462F" d="M36 60.9996L35.1186 61.4721C35.2928 61.7969 35.6314 61.9996 36 61.9996C36.3686 61.9996 36.7072 61.7969 36.8814 61.4721L36 60.9996ZM35.9998 11L36.8817 11.4713C37.142 10.9843 36.9583 10.3785 36.4713 10.1181C35.9843 9.85776 35.3785 10.0414 35.118 10.5283L35.9998 11ZM36 35.9996L36.8814 35.5271L36 35.9996ZM29 35.9996C29 43.0422 30.529 49.4021 32.0508 53.992C32.8126 56.2896 33.575 58.1509 34.1488 59.4413C34.4357 60.0866 34.6757 60.5897 34.8451 60.9336C34.9299 61.1056 34.997 61.2379 35.0435 61.3283C35.0668 61.3735 35.085 61.4083 35.0976 61.4323C35.1039 61.4443 35.1089 61.4537 35.1124 61.4603C35.1142 61.4636 35.1156 61.4663 35.1166 61.4682C35.1171 61.4692 35.1176 61.47 35.1179 61.4707C35.1181 61.471 35.1183 61.4713 35.1183 61.4715C35.1185 61.4718 35.1186 61.4721 36 60.9996C36.8814 60.5271 36.8815 60.5273 36.8815 60.5275C36.8815 60.5275 36.8816 60.5275 36.8816 60.5275C36.8815 60.5275 36.8814 60.5273 36.8812 60.5269C36.8808 60.5261 36.88 60.5247 36.8789 60.5226C36.8767 60.5183 36.873 60.5114 36.868 60.5018C36.8579 60.4827 36.8424 60.4529 36.8217 60.4128C36.7804 60.3325 36.7186 60.2108 36.6392 60.0498C36.4806 59.7277 36.2518 59.2484 35.9762 58.6287C35.425 57.3889 34.6874 55.589 33.9492 53.3626C32.471 48.9042 31 42.7641 31 35.9996L29 35.9996ZM35.118 10.5283C35.0545 10.6471 29 21.9887 29 35.9996L31 35.9996C31 22.4906 36.8636 11.5052 36.8816 11.4717L35.118 10.5283ZM34 23.4996C34 20.2029 34.714 17.201 35.4387 15.0073C36.1623 12.8167 36.8861 11.4631 36.8817 11.4713L35.1178 10.5286C35.0663 10.6251 32 16.3787 32 23.4996L34 23.4996ZM36 35.9996C36.8814 35.5271 36.8815 35.5273 36.8816 35.5275C36.8816 35.5276 36.8817 35.5277 36.8817 35.5278C36.8818 35.5279 36.8818 35.5279 36.8818 35.5279C36.8817 35.5278 36.8815 35.5274 36.8811 35.5266C36.8803 35.5251 36.8788 35.5223 36.8766 35.5181C36.8722 35.5097 36.8651 35.4961 36.8554 35.4773C36.836 35.4397 36.8065 35.3815 36.7681 35.3037C36.6915 35.1481 36.5799 34.9145 36.445 34.611C36.175 34.0037 35.8124 33.1192 35.4492 32.0237C34.721 29.8274 34 26.8124 34 23.4996L32 23.4996C32 27.0904 32.779 30.3253 33.5508 32.6531C33.9376 33.8198 34.325 34.7658 34.6175 35.4236C34.7638 35.7527 34.8866 36.0101 34.974 36.1876C35.0178 36.2763 35.0527 36.3451 35.0772 36.3928C35.0895 36.4167 35.0993 36.4353 35.1062 36.4486C35.1097 36.4552 35.1125 36.4605 35.1146 36.4644C35.1156 36.4664 35.1165 36.468 35.1172 36.4693C35.1175 36.4699 35.1178 36.4704 35.118 36.4709C35.1182 36.4711 35.1183 36.4714 35.1184 36.4716C35.1185 36.4718 35.1186 36.4721 36 35.9996ZM36 35.9996C35.1186 36.4721 35.1185 36.4719 35.1184 36.4717C35.1184 36.4716 35.1183 36.4715 35.1183 36.4714C35.1182 36.4713 35.1182 36.4713 35.1182 36.4713C35.1183 36.4714 35.1185 36.4718 35.1189 36.4726C35.1197 36.4741 35.1212 36.4769 35.1234 36.4811C35.1278 36.4895 35.1349 36.5031 35.1446 36.5219C35.164 36.5595 35.1935 36.6177 35.2319 36.6955C35.3085 36.8511 35.4201 37.0847 35.555 37.3882C35.825 37.9955 36.1876 38.88 36.5508 39.9755C37.279 42.1718 38 45.1868 38 48.4996L40 48.4996C40 44.9088 39.221 41.6739 38.4492 39.3461C38.0624 38.1795 37.675 37.2334 37.3825 36.5756C37.2362 36.2465 37.1134 35.9891 37.026 35.8116C36.9822 35.7229 36.9474 35.6541 36.9228 35.6064C36.9105 35.5825 36.9008 35.5639 36.8938 35.5506C36.8903 35.544 36.8875 35.5387 36.8854 35.5348C36.8844 35.5328 36.8835 35.5312 36.8829 35.5299C36.8825 35.5293 36.8822 35.5288 36.882 35.5283C36.8818 35.5281 36.8817 35.5278 36.8816 35.5277C36.8815 35.5274 36.8814 35.5271 36 35.9996ZM38 48.4996C38 51.8124 37.279 54.8274 36.5508 57.0237C36.1876 58.1192 35.825 59.0037 35.555 59.611C35.4201 59.9145 35.3085 60.1481 35.2319 60.3037C35.1935 60.3815 35.164 60.4397 35.1446 60.4773C35.1349 60.4961 35.1278 60.5097 35.1234 60.5181C35.1212 60.5223 35.1197 60.5251 35.1189 60.5266C35.1185 60.5274 35.1183 60.5278 35.1182 60.5279C35.1182 60.5279 35.1182 60.5279 35.1183 60.5278C35.1183 60.5277 35.1184 60.5276 35.1184 60.5275C35.1185 60.5273 35.1186 60.5271 36 60.9996C36.8814 61.4721 36.8815 61.4718 36.8816 61.4716C36.8817 61.4714 36.8818 61.4711 36.882 61.4709C36.8822 61.4704 36.8825 61.4699 36.8829 61.4693C36.8835 61.468 36.8844 61.4664 36.8854 61.4644C36.8875 61.4605 36.8903 61.4552 36.8938 61.4486C36.9007 61.4353 36.9105 61.4167 36.9228 61.3928C36.9473 61.3451 36.9822 61.2763 37.026 61.1876C37.1134 61.0101 37.2362 60.7527 37.3825 60.4236C37.675 59.7658 38.0624 58.8198 38.4492 57.6531C39.221 55.3253 40 52.0904 40 48.4996L38 48.4996Z"/>
    </g>
  </g>
  <g id="line">
    <ellipse cx="36" cy="36" rx="19" ry="28" fill="none" stroke="#000" stroke-width="2"/>
    <path fill="none" stroke="#000" stroke-linecap="round" stroke-linejoin="round" stroke-width="2" d="M36 36C36 36 33 30.4036 33 23.5C33 16.5964 36 11 36 11"/>
    <path fill="none" stroke="#000" stroke-linecap="round" stroke-linejoin="round" stroke-width="2" d="M36 36C36 36 39 41.5964 39 48.5C39 55.4036 36 61 36 61"/>
  </g>
</svg>
